X: 26706
T: Mike Flanagan's
R: jig
M: 6/8
K: Dmajor
|:A|DFA DFA|GBc dcB|Add cde|fdf ecA|
DFA DFA|GBc dcB|Add cde|fdc d2:|
|:e|fdd dcd|edA ABc|cdd dcd|eaa a2 g|
fdd dcd|edA ABc|dcA GFG|AFD D2:|

